X:68
T:Scotch Cap
T:Edinburgh Castle
S:Colin Hume's website,  colinhume.com  - chords can also be printed below the stave.
Q:3/8=120
M:6/8
L:1/8
K:Gdor clef=treble
P:A
|: "Gm"G2G g2g | "F"a2g f2d | "C"e2g e2d \
|1 "C"e3 g3 :|2 "C"e2 g2 g/2a/2 
%Error : Bar 5 is 5/8 not 6/8
||
P:B
|: "Gm"b2d d2 g/2a/2 | "Bb"b2d d2 g/2a/2 | \
"Gm"b2d d2B | "Bb"d3 g3 |
"C"e2e "Bb"d2B | "C"c2c g2g | "C"e2e "Bb"dB2 \
|1 "F"A3 "Gm"G2 g/2a/2:|2 "F"A3 "Gm"G3 |]
